X: 13392
T: Flight Of The Curlew
R: waltz
M: 3/4
K: Amajor
EA c4|Bc d4|c B2 A3-|A6|
e2 a4|ba g4|fe f e3-|e6|
fg a4|ba g4|f2 e4|cB A4|
EA c4|e c2 B3|c B2 A3-|A6:|
|:c/B/A G (F2 z|G) A2 c3|ec B A3-|A6|
c/B/A G (F2 z|G) A2 c3|Ac e f3-|f3 g3-|
g f2 e3|f e2 c3-|cA B c3-|c E2 F3-|
[1FA B2 c6|e c2 B3|c B2 A3-|A6:|
[2AB c3 e|c2 d2 (b2|b6)|c'b a4|f/d/c BA B(A|(A6)|A6):|

